!!!!SEGMENT: pl-sa--552-a-ix-32--026_anonim--mazurek.krn
!!!cenid: 18xx:537
!!!COM: Anonim
!!!COM-rismID: pe30004985
!!!CDT:
!!!CNT:
!!!OTL: Mazurek
!!!PDT:
!!!AGN: Secular; Mazurka
!!!SMS-siglum: PL-SA
!!!SMS-shelfmark: 552/A IX 32
!!!SMS-shelfwork: 026 W
!!!SMS-variant:
!!!SMS-altvar:
!!!NIFC-rismSourceID: 1001069568
!!!NIFC-islandoraID:
!!!URL-pdf-islandora:
!!!URL-scan: https://bc.bdsandomierz.pl/dlibra/publication/1308/edition/1276/content @EN{Scan on Cyfrowa Biblioteka Diecezjalna w Sandomierzu} @PL{Skany w portalu Cyfrowa Biblioteka Diecezjalna w Sandomierzu}
!!!ONB-nifc: Str. 13, s. 6
!!!AIN: 2 empty
!!!key:
**kern	**kern
*part2	*part1
*staff2	*staff1
*Iempty	*Iempty
*I"	*I"
*I'keyb	*I'keyb
*clefF4	*clefG2
*k[]	*k[]
*C:	*C:
*M3/8	*M3/8
=1	=1
!LO:TX:a:t=P:problem=mixed beam	!LO:TX:a:i:t=Mazurek
!	!LO:TX:a:t=P:problem=jedno metrum pomiędzy pięcioliniami z kreską ułamkową
8C/L	8cc\L
8c\ 8e\	16ee\L
.	16gg\J
8c\J 8e\	8ccc\J
=2	=2
8G\L	16aa\LL
.	16gg\J
8d\ 8f	8aa\
8d\J 8f	8ff\J
=3	=3
8G\L	16ee\LL
.	16ff\J
8c\ 8e	8gg\
8c\J 8e	16aa\L
.	16gg\JJ
=4	=4
8G\L	16ff\LL
.	16ee\J
8B\ 8d	8ff\
8B\J 8d	8dd\J
!LO:CL:ed	!
*clefG2	*
=5:|!|:	=5:|!|:
8.c/L 8.e	16ee\LL
.	16gg\
.	16ff#X\
8.g/J	16gg\
.	16aa\
.	16gg\JJ
=6	=6
8.d/L 8.f	16ff\LL
.	16ee\J
.	8ff\
8.g/J	.
.	8dd\J
=7	=7
8.c/L 8.e	16ee\LL
.	16dd\J
.	8ee\
8.g/J	.
.	8cc\J
=8	=8
!	!LO:TX:a:t=P:problem=mixed beam
8.G/L 8.d	16b\LL
.	16dd\J
.	8gg\
8.g/J	.
.	8g/J
=:|!	=:|!
*-	*-
!!!system-decoration: [(s1,s2)]
!!!RDF**kern: > = above
!!!RDF**kern: < = below
!!!EED: Mateusz Mrugas
!!!EEV: 2020-12-12
!!!ENC: Berenika Jozajtis
!!!END: 2020-06-18
